docs/.gitbook/assets/icon-moon-16@light.svg

<svg width="32" height="32" viewBox="0 0 16 16" fill="none" xmlns="http://www.w3.org/2000/svg">
<rect x="0" y="0" width="16" height="16" fill="#fff"/>
<path fill-rule="evenodd" clip-rule="evenodd" d="M8.51667 1.40551C8.64911 1.65959 8.62523 1.96692 8.45512 2.19748C7.97346 2.85029 7.69283 3.64382 7.69283 4.50005C7.69283 6.68269 9.53871 8.50005 11.876 8.50005C12.6123 8.50005 13.3011 8.31875 13.899 8.0021C14.144 7.87236 14.4406 7.88834 14.6702 8.04366C14.8998 8.19898 15.025 8.4683 14.9958 8.74398C14.6228 12.2623 11.6398 15.0001 8.01752 15.0001C4.14383 15.0001 1 11.868 1 8.00005C1 4.19398 4.04387 1.10062 7.83218 1.00245C8.1186 0.995028 8.38423 1.15144 8.51667 1.40551ZM6.50065 2.71041C4.19006 3.36745 2.5 5.48827 2.5 8.00005C2.5 11.0356 4.9683 13.5001 8.01752 13.5001C10.4162 13.5001 12.4561 11.9745 13.2167 9.84597C12.7863 9.94675 12.3373 10.0001 11.876 10.0001C8.76429 10.0001 6.19283 7.56411 6.19283 4.50005C6.19283 3.87337 6.30134 3.27121 6.50065 2.71041Z" fill="#000"/>
</svg>

<svg xmlns="http://www.w3.org/2000/svg" width="32" height="32" fill="none" viewBox="0 0 16 16"><path fill="#fff" d="M0 0h16v16H0z"/><path fill="#000" fill-rule="evenodd" d="M8.517 1.406a.75.75 0 0 1-.062.791A3.86 3.86 0 0 0 7.693 4.5c0 2.183 1.846 4 4.183 4a4.3 4.3 0 0 0 2.023-.498.75.75 0 0 1 1.097.742A7.01 7.01 0 0 1 8.018 15C4.144 15 1 11.868 1 8c0-3.806 3.044-6.9 6.832-6.998a.75.75 0 0 1 .685.404M6.5 2.71c-2.31.657-4 2.778-4 5.29 0 3.036 2.468 5.5 5.518 5.5a5.52 5.52 0 0 0 5.199-3.654c-.43.1-.88.154-1.341.154-3.112 0-5.683-2.436-5.683-5.5 0-.627.108-1.229.308-1.79" clip-rule="evenodd"/></svg>
